dist/assets/images/producersColor/URS_Corporation_logo 2.svg

<svg width="97" height="34" viewBox="0 0 97 34" fill="none" xmlns="http://www.w3.org/2000/svg">
<path d="M38.2435 7.68945V26.4899H35.3335V32.7938H51.7291V26.4899H48.6419V20.6383H51.4134L57.708 32.7938H76.7773V30.5552C79.018 32.951 82.3638 33.3996 85.1095 33.3996C90.9 33.3996 96.1393 29.8969 96.2593 24.255C96.3526 19.8311 94.0159 16.4985 89.2557 14.7683C86.9485 13.9299 84.8325 13.3158 82.6777 12.6143C80.0945 11.7722 78.849 10.9605 78.9063 9.1797C78.9644 7.32816 80.5976 6.65888 82.5087 6.75173C85.3698 6.88963 85.9071 8.7945 86.2293 10.3905H94.3002V1.41222H86.5128V3.17183C84.9913 1.41222 83.1873 0.692383 79.5738 0.692383C73.089 0.692383 68.9234 4.2732 68.9234 9.77175C68.9234 14.2361 71.5204 17.0363 77.1198 18.875C79.0318 19.5029 82.0471 20.4609 83.4061 20.9444C85.6976 21.7636 86.4694 22.6765 86.4694 24.1778C86.4694 25.987 85.2701 27.0001 82.6998 26.9155C80.701 26.8503 78.2933 25.8905 77.4697 22.2766H69.0176V26.4899H65.5665L60.9245 19.1573C64.7725 17.9915 66.6255 14.9274 66.3624 10.4465C66.1555 6.97237 64.7661 4.46166 61.845 3.03301C58.8574 1.57127 55.4064 1.41222 50.0267 1.41222H21.317V7.68945H24.1846V20.7045C24.1846 25.8252 21.5118 26.5175 19.514 26.5175C17.4496 26.5175 14.8092 25.611 14.8092 20.7045V7.68945H17.8568V1.41222H0.855469V7.68945H3.78119V19.8173C3.78119 29.4014 8.08252 33.4272 18.3008 33.4272C24.3397 33.4272 28.3474 32.0326 30.7875 28.4545C32.0136 26.6563 32.6866 23.8385 32.6866 19.8173V7.68945H38.2435ZM54.4711 14.2333C53.6088 14.6939 52.5 14.8447 51.0977 14.8447H48.6419V7.68945H51.3008C52.6967 7.68945 53.8609 7.7961 54.6401 8.30265C55.7092 8.99675 56.0794 10.0586 56.0794 11.2537C56.0785 12.5573 55.483 13.6927 54.4711 14.2333Z" fill="#2A2723"/>
<path d="M38.2435 7.68945V26.4899H35.3335V32.7938H51.7291V26.4899H48.6419V20.6383H51.4134L57.708 32.7938H76.7773V30.5552C79.018 32.951 82.3638 33.3996 85.1095 33.3996C90.9 33.3996 96.1393 29.8969 96.2593 24.255C96.3526 19.8311 94.0159 16.4985 89.2557 14.7683C86.9485 13.9299 84.8325 13.3158 82.6777 12.6143C80.0945 11.7722 78.849 10.9605 78.9063 9.1797C78.9644 7.32816 80.5976 6.65888 82.5087 6.75173C85.3698 6.88963 85.9071 8.7945 86.2293 10.3905H94.3002V1.41222H86.5128V3.17183C84.9913 1.41222 83.1873 0.692383 79.5738 0.692383C73.089 0.692383 68.9234 4.2732 68.9234 9.77175C68.9234 14.2361 71.5204 17.0363 77.1198 18.875C79.0318 19.5029 82.0471 20.4609 83.4061 20.9444C85.6976 21.7636 86.4694 22.6765 86.4694 24.1778C86.4694 25.987 85.2701 27.0001 82.6998 26.9155C80.701 26.8503 78.2933 25.8905 77.4697 22.2766H69.0176V26.4899H65.5665L60.9245 19.1573C64.7725 17.9915 66.6255 14.9274 66.3624 10.4465C66.1555 6.97237 64.7661 4.46166 61.845 3.03301C58.8574 1.57127 55.4064 1.41222 50.0267 1.41222H21.317V7.68945H24.1846V20.7045C24.1846 25.8252 21.5118 26.5175 19.514 26.5175C17.4496 26.5175 14.8092 25.611 14.8092 20.7045V7.68945H17.8568V1.41222H0.855469V7.68945H3.78119V19.8173C3.78119 29.4014 8.08252 33.4272 18.3008 33.4272C24.3397 33.4272 28.3474 32.0326 30.7875 28.4545C32.0136 26.6563 32.6866 23.8385 32.6866 19.8173V7.68945H38.2435ZM54.4711 14.2333C53.6088 14.6939 52.5 14.8447 51.0977 14.8447H48.6419V7.68945H51.3008C52.6967 7.68945 53.8609 7.7961 54.6401 8.30265C55.7092 8.99675 56.0794 10.0586 56.0794 11.2537C56.0785 12.5573 55.483 13.6927 54.4711 14.2333Z" fill="black"/>
</svg>

<svg width="97" height="34" fill="none" xmlns="http://www.w3.org/2000/svg"><path d="M38.243 7.69v18.8h-2.91v6.304H51.73V26.49h-3.087v-5.852h2.771l6.295 12.156h19.07v-2.239c2.24 2.396 5.586 2.845 8.331 2.845 5.791 0 11.03-3.503 11.15-9.145.094-4.424-2.243-7.756-7.003-9.487-2.308-.838-4.424-1.452-6.578-2.154-2.584-.842-3.829-1.654-3.772-3.434.058-1.852 1.692-2.521 3.603-2.428 2.86.138 3.398 2.042 3.72 3.638h8.07V1.412h-7.787v1.76c-1.522-1.76-3.326-2.48-6.94-2.48-6.484 0-10.65 3.581-10.65 9.08 0 4.464 2.597 7.264 8.197 9.103 1.912.628 4.927 1.586 6.286 2.07 2.292.819 3.063 1.732 3.063 3.233 0 1.809-1.199 2.822-3.77 2.738-1.998-.066-4.406-1.026-5.23-4.64h-8.451v4.214h-3.451l-4.642-7.333c3.847-1.166 5.7-4.23 5.437-8.71-.206-3.475-1.596-5.985-4.517-7.414-2.988-1.462-6.439-1.62-11.818-1.62h-28.71v6.276h2.868v13.015c0 5.121-2.673 5.813-4.671 5.813-2.064 0-4.705-.906-4.705-5.813V7.69h3.048V1.412H.855V7.69h2.926v12.128c0 9.584 4.302 13.61 14.52 13.61 6.039 0 10.046-1.394 12.487-4.973 1.226-1.798 1.899-4.616 1.899-8.637V7.69h5.556zm16.228 6.543c-.862.46-1.971.612-3.373.612h-2.456V7.689H51.3c1.396 0 2.56.107 3.34.614 1.068.694 1.438 1.756 1.438 2.95 0 1.304-.596 2.44-1.608 2.98z" fill="#2A2723"/><path d="M38.243 7.69v18.8h-2.91v6.304H51.73V26.49h-3.087v-5.852h2.771l6.295 12.156h19.07v-2.239c2.24 2.396 5.586 2.845 8.331 2.845 5.791 0 11.03-3.503 11.15-9.145.094-4.424-2.243-7.756-7.003-9.487-2.308-.838-4.424-1.452-6.578-2.154-2.584-.842-3.829-1.654-3.772-3.434.058-1.852 1.692-2.521 3.603-2.428 2.86.138 3.398 2.042 3.72 3.638h8.07V1.412h-7.787v1.76c-1.522-1.76-3.326-2.48-6.94-2.48-6.484 0-10.65 3.581-10.65 9.08 0 4.464 2.597 7.264 8.197 9.103 1.912.628 4.927 1.586 6.286 2.07 2.292.819 3.063 1.732 3.063 3.233 0 1.809-1.199 2.822-3.77 2.738-1.998-.066-4.406-1.026-5.23-4.64h-8.451v4.214h-3.451l-4.642-7.333c3.847-1.166 5.7-4.23 5.437-8.71-.206-3.475-1.596-5.985-4.517-7.414-2.988-1.462-6.439-1.62-11.818-1.62h-28.71v6.276h2.868v13.015c0 5.121-2.673 5.813-4.671 5.813-2.064 0-4.705-.906-4.705-5.813V7.69h3.048V1.412H.855V7.69h2.926v12.128c0 9.584 4.302 13.61 14.52 13.61 6.039 0 10.046-1.394 12.487-4.973 1.226-1.798 1.899-4.616 1.899-8.637V7.69h5.556zm16.228 6.543c-.862.46-1.971.612-3.373.612h-2.456V7.689H51.3c1.396 0 2.56.107 3.34.614 1.068.694 1.438 1.756 1.438 2.95 0 1.304-.596 2.44-1.608 2.98z" fill="#000"/></svg>
